X: 42
M:4/4
L:1/8
K:G
|: B|d2 B4 d3|f2 e2 ^c2 A2|^c4 d4|a2 fe ^d2 B2|e2 g2 B2 ^d2|e6 =d2|B4 d4|f2 e2 ^c2 A2|^c4 d4| a2 fe ^d2 B2 |e2 g2 B2 ^d2| e6:|

